svg/200/rounded/text_select_start-fill.svg

<svg xmlns="http://www.w3.org/2000/svg" width="48" height="48" viewBox="0 -960 960 960"><path d="M479.811-760q-8.58 0-14.196-5.804Q460-771.609 460-780.189t5.804-14.196Q471.609-800 480.189-800t14.196 5.804Q500-788.392 500-779.811q0 8.58-5.804 14.195Q488.391-760 479.811-760Zm150.398 0q-9.363 0-14.594-5.804-5.23-5.805-5.23-14.385t5.406-14.196Q621.197-800 630.176-800q8.978 0 14.593 5.804 5.616 5.804 5.616 14.385 0 8.58-5.801 14.195-5.8 5.616-14.375 5.616Zm149.602 0q-8.58 0-14.195-5.804Q760-771.609 760-780.189t5.804-14.196Q771.609-800 780.189-800t14.196 5.804Q800-788.392 800-779.811q0 8.58-5.804 14.195Q788.392-760 779.811-760Zm0 149.615q-8.58 0-14.195-5.406Q760-621.197 760-630.176q0-8.978 5.804-14.593 5.805-5.616 14.385-5.616t14.196 5.801q5.615 5.8 5.615 14.375 0 9.363-5.804 14.594-5.804 5.23-14.385 5.23Zm0 150.385q-8.58 0-14.195-5.804Q760-471.609 760-480.189t5.804-14.196Q771.609-500 780.189-500t14.196 5.804Q800-488.391 800-479.811t-5.804 14.196Q788.392-460 779.811-460Zm0 149.616q-8.58 0-14.195-5.407Q760-321.197 760-330.175q0-8.979 5.804-14.594 5.805-5.616 14.385-5.616t14.196 5.801q5.615 5.8 5.615 14.375 0 9.363-5.804 14.594t-14.385 5.231ZM479.811-160q-8.58 0-14.196-5.804Q460-171.608 460-180.189q0-8.58 5.804-14.195Q471.609-200 480.189-200t14.196 5.804Q500-188.391 500-179.811t-5.804 14.196Q488.391-160 479.811-160Zm150.398 0q-9.363 0-14.594-5.804-5.23-5.804-5.23-14.385 0-8.58 5.406-14.195Q621.197-200 630.176-200q8.978 0 14.593 5.804 5.616 5.805 5.616 14.385t-5.801 14.196q-5.8 5.615-14.375 5.615Zm149.602 0q-8.58 0-14.195-5.804Q760-171.608 760-180.189q0-8.58 5.804-14.195Q771.609-200 780.189-200t14.196 5.804Q800-188.391 800-179.811t-5.804 14.196Q788.392-160 779.811-160Zm-604.427 0q-6.538 0-10.961-4.485T160-175.6q0-6.631 4.423-10.9t10.961-4.269h66.077v-578.462h-66.077q-6.538 0-10.961-4.485T160-784.831q0-6.631 4.423-10.9T175.384-800h162.693q5.788 0 10.586 4.485t4.798 11.115q0 6.631-4.798 10.9t-10.586 4.269h-65.846v578.462h65.846q5.788 0 10.586 4.485t4.798 11.115q0 6.631-4.798 10.9T338.077-160H175.384Z"/></svg>

<svg xmlns="http://www.w3.org/2000/svg" width="48" height="48" viewBox="0 -960 960 960"><path d="M479.81-760q-8.58 0-14.19-5.8-5.62-5.81-5.62-14.39 0-8.58 5.8-14.19 5.81-5.62 14.39-5.62 8.58 0 14.19 5.8 5.62 5.81 5.62 14.39 0 8.58-5.8 14.19-5.81 5.62-14.39 5.62Zm150.4 0q-9.36 0-14.59-5.8-5.24-5.81-5.24-14.39 0-8.58 5.41-14.19 5.41-5.62 14.39-5.62 8.97 0 14.59 5.8 5.61 5.81 5.61 14.39 0 8.58-5.8 14.19-5.8 5.62-14.37 5.62Zm149.6 0q-8.58 0-14.19-5.8-5.62-5.81-5.62-14.39 0-8.58 5.8-14.19 5.81-5.62 14.39-5.62 8.58 0 14.19 5.8 5.62 5.81 5.62 14.39 0 8.58-5.8 14.19-5.81 5.62-14.39 5.62Zm0 149.62q-8.58 0-14.19-5.41-5.62-5.41-5.62-14.39 0-8.97 5.8-14.59 5.81-5.61 14.39-5.61 8.58 0 14.19 5.8 5.62 5.8 5.62 14.37 0 9.36-5.8 14.59-5.81 5.24-14.39 5.24Zm0 150.38q-8.58 0-14.19-5.8-5.62-5.81-5.62-14.39 0-8.58 5.8-14.19 5.81-5.62 14.39-5.62 8.58 0 14.19 5.8 5.62 5.81 5.62 14.39 0 8.58-5.8 14.19-5.81 5.62-14.39 5.62Zm0 149.62q-8.58 0-14.19-5.41-5.62-5.41-5.62-14.39 0-8.97 5.8-14.59 5.81-5.61 14.39-5.61 8.58 0 14.19 5.8 5.62 5.8 5.62 14.37 0 9.36-5.8 14.59-5.81 5.24-14.39 5.24ZM479.81-160q-8.58 0-14.19-5.8-5.62-5.81-5.62-14.39 0-8.58 5.8-14.19 5.81-5.62 14.39-5.62 8.58 0 14.19 5.8 5.62 5.81 5.62 14.39 0 8.58-5.8 14.19-5.81 5.62-14.39 5.62Zm150.4 0q-9.36 0-14.59-5.8-5.24-5.81-5.24-14.39 0-8.58 5.41-14.19 5.41-5.62 14.39-5.62 8.97 0 14.59 5.8 5.61 5.81 5.61 14.39 0 8.58-5.8 14.19-5.8 5.62-14.37 5.62Zm149.6 0q-8.58 0-14.19-5.8-5.62-5.81-5.62-14.39 0-8.58 5.8-14.19 5.81-5.62 14.39-5.62 8.58 0 14.19 5.8 5.62 5.81 5.62 14.39 0 8.58-5.8 14.19-5.81 5.62-14.39 5.62Zm-604.43 0q-6.53 0-10.96-4.48-4.42-4.49-4.42-11.12 0-6.63 4.42-10.9 4.43-4.27 10.96-4.27h66.08v-578.46h-66.08q-6.53 0-10.96-4.49-4.42-4.48-4.42-11.11 0-6.63 4.42-10.9 4.43-4.27 10.96-4.27h162.7q5.79 0 10.58 4.48 4.8 4.49 4.8 11.12 0 6.63-4.8 10.9-4.79 4.27-10.58 4.27h-65.85v578.46h65.85q5.79 0 10.58 4.49 4.8 4.48 4.8 11.11 0 6.63-4.8 10.9-4.79 4.27-10.58 4.27h-162.7Z"/></svg>
